src/assets/tokens/ankrETH.svg

<svg width="200" height="200" viewBox="0 0 200 200" fill="none" xmlns="http://www.w3.org/2000/svg">
<path d="M87.0096 3.48411C95.0481 -1.16137 104.952 -1.16137 112.99 3.48411L177.01 40.4812C185.048 45.1267 190 53.7119 190 63.0029V136.997C190 146.288 185.048 154.873 177.01 159.519L112.99 196.516C104.952 201.161 95.0481 201.161 87.0096 196.516L22.9904 159.519C14.9519 154.873 10 146.288 10 136.997V63.0029C10 53.7119 14.9519 45.1267 22.9904 40.4812L87.0096 3.48411Z" fill="#FFE81C"/>
<path opacity="0.6" d="M99.9801 120.88L132.85 101.011L99.9801 85.7559L67.1499 101.011L99.9801 120.88Z" fill="black"/>
<path opacity="0.45" d="M99.9801 85.756V45.25L67.1499 101.012L99.9801 120.88V85.756Z" fill="black"/>
<path opacity="0.8" d="M99.98 120.88L132.85 101.012L99.98 45.25V85.756V120.88Z" fill="black"/>
<path opacity="0.45" d="M99.9801 127.233L67.1499 107.405L99.9801 154.75V127.233Z" fill="black"/>
<path opacity="0.8" d="M132.85 107.405L99.98 127.233V154.75L132.85 107.405Z" fill="black"/>
</svg>

<svg fill="none" height="200" width="200" xmlns="http://www.w3.org/2000/svg"><path d="M87.01 3.484a25.958 25.958 0 0 1 25.98 0l64.02 36.997A26.011 26.011 0 0 1 190 63.003v73.994a26.012 26.012 0 0 1-12.99 22.522l-64.02 36.997a25.96 25.96 0 0 1-25.98 0l-64.02-36.997A26.011 26.011 0 0 1 10 136.997V63.003A26.01 26.01 0 0 1 22.99 40.48z" fill="#ffe81c"/><g fill="#000"><path d="M99.98 120.88l32.87-19.869-32.87-15.255-32.83 15.255z" opacity=".6"/><path d="M99.98 85.756V45.25l-32.83 55.762 32.83 19.868z" opacity=".45"/><path d="M99.98 120.88l32.87-19.868L99.98 45.25z" opacity=".8"/><path d="M99.98 127.233l-32.83-19.828 32.83 47.345z" opacity=".45"/><path d="M132.85 107.405l-32.87 19.828v27.517z" opacity=".8"/></g></svg>
